symbolic/32x32/apps/frostwire.svg

<svg xmlns="http://www.w3.org/2000/svg" width="32" height="32" version="1">
 <rect style="opacity:0.2" width="29" height="29" x="2.02" y="2" rx="14.5" ry="14.5"/>
 <rect style="fill:#1a97d6" width="29" height="29" x="2.02" y="1" rx="14.5" ry="14.5"/>
 <path style="fill:#ffffff;opacity:0.2" d="M 16.525391 1 C 8.4923906 1 2.0253906 7.467 2.0253906 15.5 C 2.0253906 15.668901 2.0451089 15.832529 2.0507812 16 C 2.3148906 8.2024902 8.6612913 2 16.525391 2 C 24.38949 2 30.735891 8.2024902 31 16 C 31.005672 15.832529 31.025391 15.668901 31.025391 15.5 C 31.025391 7.467 24.558391 1 16.525391 1 z"/>
 <path style="opacity:0.2" d="m 1.7458383,13.000254 a 0.74912184,0.74970659 0 0 0 -0.052667,1.497312 c 0,0 0.9671785,0.0817 2.1086452,0.339677 1.1414665,0.257975 2.4350699,0.746395 2.9493723,1.261098 0.1454435,0.145558 0.2871356,0.263747 0.4310918,0.400194 C 7.0383244,16.634982 6.8966323,16.753172 6.7511885,16.89873 6.2368861,17.413434 4.9432827,17.901853 3.8018162,18.159828 2.6603496,18.417804 1.693171,18.499505 1.693171,18.499505 a 0.74978137,0.75036663 0 0 0 0.1267918,1.495359 c 0,0 1.0596454,-0.08994 2.311512,-0.372863 1.2518667,-0.282929 2.7203948,-0.703979 3.6789129,-1.663245 0.175885,-0.176023 0.3415869,-0.316503 0.5130191,-0.474377 0.9593218,0.750349 1.8993982,1.287291 2.8459882,1.495359 a 0.74912184,0.74970659 0 0 0 0.161903,0.01757 h 5.1536 a 0.74912184,0.74970659 0 0 0 0.0117,0 h 5.153599 a 0.74912184,0.74970659 0 0 0 0.161903,-0.01757 c 0.955695,-0.21007 1.904338,-0.754608 2.873298,-1.516833 0.16221,0.149085 0.319367,0.278622 0.48571,0.445094 0.955525,0.956271 2.420359,1.390938 3.671111,1.686671 1.250749,0.295733 2.309559,0.398242 2.309561,0.398242 a 0.74912184,0.74970659 0 1 0 0.144347,-1.491455 c 0,0 -0.966062,-0.09489 -2.108645,-0.365054 -1.142583,-0.270158 -2.439879,-0.770731 -2.957175,-1.28843 -0.136769,-0.136875 -0.270188,-0.244829 -0.405734,-0.372864 0.135585,-0.128953 0.268826,-0.239753 0.405734,-0.376768 0.514303,-0.514703 1.807906,-1.003123 2.949372,-1.261098 1.141467,-0.257976 2.108645,-0.339677 2.108645,-0.339677 a 0.74978225,0.75036751 0 1 0 -0.126791,-1.495361 c 0,0 -1.059646,0.08994 -2.311512,0.372863 -1.251867,0.282927 -2.720395,0.70398 -3.678913,1.663245 -0.168583,0.168715 -0.327056,0.30281 -0.491562,0.454855 C 23.706552,14.745221 22.755151,14.22462 21.8121,14.017331 a 0.74912184,0.74970659 0 0 0 -0.1619,-0.01757 h -5.153599 a 0.74912184,0.74970659 0 0 0 -0.0117,0 h -5.1536 a 0.74912184,0.74970659 0 0 0 -0.161903,0.01757 C 10.222808,14.225402 9.2827315,14.762345 8.3234098,15.512694 8.1519746,15.354817 7.9862727,15.214337 7.8103877,15.038315 6.8518696,14.07905 5.3833414,13.657997 4.1314748,13.37507 2.8796083,13.092143 1.8199628,13.002207 1.8199628,13.002207 a 0.74912184,0.74970659 0 0 0 -0.074124,-0.002 z m 9.7083497,2.498773 h 5.03071 a 0.74912184,0.74970659 0 0 0 0.0117,0 h 5.032659 c 0.566269,0.131252 1.23296,0.471251 1.958445,0.983891 -0.731461,0.529933 -1.402755,0.885457 -1.960395,1.015126 h -5.030709 a 0.74912184,0.74970659 0 0 0 -0.0117,0 h -5.03071 C 10.902163,17.36968 10.239911,17.019196 9.5172003,16.498535 10.239912,15.977875 10.902162,15.62739 11.454188,15.499027 Z"/>
 <path style="fill:#c1eaff" d="m 1.7458383,12.000752 a 0.74912184,0.74970659 0 0 0 -0.052667,1.497312 c 0,0 0.9671785,0.0817 2.1086452,0.339677 1.1414665,0.257975 2.4350699,0.746395 2.9493723,1.261098 0.1454435,0.145558 0.2871356,0.263747 0.4310918,0.400194 C 7.0383244,15.63548 6.8966323,15.75367 6.7511885,15.899228 6.2368861,16.413932 4.9432827,16.902351 3.8018162,17.160326 2.6603496,17.418302 1.693171,17.500003 1.693171,17.500003 a 0.74978137,0.75036663 0 0 0 0.1267918,1.495359 c 0,0 1.0596454,-0.08994 2.311512,-0.372863 1.2518667,-0.282929 2.7203948,-0.703979 3.6789129,-1.663245 0.175885,-0.176023 0.3415869,-0.316503 0.5130191,-0.474377 0.9593218,0.750349 1.8993982,1.287291 2.8459882,1.495359 a 0.74912184,0.74970659 0 0 0 0.161903,0.01757 h 5.1536 a 0.74912184,0.74970659 0 0 0 0.0117,0 h 5.153599 a 0.74912184,0.74970659 0 0 0 0.161903,-0.01757 c 0.955695,-0.21007 1.904338,-0.754608 2.873298,-1.516833 0.16221,0.149085 0.319367,0.278622 0.48571,0.445094 0.955525,0.956271 2.420359,1.390938 3.671111,1.686671 1.250749,0.295733 2.309559,0.398242 2.309561,0.398242 a 0.74912184,0.74970659 0 1 0 0.144347,-1.491455 c 0,0 -0.966062,-0.09489 -2.108645,-0.365054 -1.142583,-0.270158 -2.439879,-0.770731 -2.957175,-1.28843 -0.136769,-0.136875 -0.270188,-0.244829 -0.405734,-0.372864 0.135585,-0.128953 0.268826,-0.239753 0.405734,-0.376768 0.514303,-0.514703 1.807906,-1.003123 2.949372,-1.261098 1.141467,-0.257976 2.108645,-0.339677 2.108645,-0.339677 a 0.74978225,0.75036751 0 1 0 -0.126791,-1.495361 c 0,0 -1.059646,0.08994 -2.311512,0.372863 -1.251867,0.282927 -2.720395,0.70398 -3.678913,1.663245 -0.168583,0.168715 -0.327056,0.30281 -0.491562,0.454855 -0.972994,-0.747947 -1.924395,-1.268548 -2.867446,-1.475837 a 0.74912184,0.74970659 0 0 0 -0.1619,-0.01757 h -5.153599 a 0.74912184,0.74970659 0 0 0 -0.0117,0 h -5.1536 a 0.74912184,0.74970659 0 0 0 -0.161903,0.01757 C 10.222808,13.2259 9.2827315,13.762843 8.3234098,14.513192 8.1519746,14.355315 7.9862727,14.214835 7.8103877,14.038813 6.8518696,13.079548 5.3833414,12.658495 4.1314748,12.375568 2.8796083,12.092641 1.8199628,12.002705 1.8199628,12.002705 a 0.74912184,0.74970659 0 0 0 -0.074124,-0.002 z m 9.7083497,2.498773 h 5.03071 a 0.74912184,0.74970659 0 0 0 0.0117,0 h 5.032659 c 0.566269,0.131252 1.23296,0.471251 1.958445,0.983891 -0.731461,0.529933 -1.402755,0.885457 -1.960395,1.015126 h -5.030709 a 0.74912184,0.74970659 0 0 0 -0.0117,0 h -5.03071 c -0.552025,-0.128364 -1.214277,-0.478848 -1.9369877,-0.999509 0.7227117,-0.52066 1.3849617,-0.871145 1.9369877,-0.999508 z"/>
 <path style="opacity:0.2" d="M 22.800781 8.2597656 L 17.673828 19.609375 C 17.422864 20.169452 16.784067 20.122101 16.46875 19.787109 L 16.353516 20.042969 C 15.970017 20.906452 17.287463 21.471627 17.673828 20.609375 L 22.917969 9 C 23.04113 8.7342513 22.970619 8.4576044 22.800781 8.2597656 z M 10.1875 8.2636719 C 10.010878 8.4705778 9.9416766 8.7607485 10.085938 9.0332031 L 11.824219 13 L 12.261719 13 L 10.1875 8.2636719 z M 16.513672 12.300781 L 11.390625 23.550781 C 11.139703 24.110765 10.501498 24.063356 10.185547 23.728516 L 10.068359 23.984375 C 9.6848606 24.847857 11.004261 25.413032 11.390625 24.550781 L 16.632812 13.041016 C 16.756201 12.774776 16.684233 12.498658 16.513672 12.300781 z M 18.681641 12.300781 L 15.521484 19.589844 C 15.284513 20.16984 14.625977 20.126016 14.306641 19.78125 L 14.183594 20.0625 C 13.825919 20.937927 15.163808 21.46527 15.521484 20.589844 L 18.802734 13.019531 C 18.913572 12.759063 18.844519 12.492472 18.681641 12.300781 z M 19.154297 19 L 21.626953 24.611328 C 22.082748 25.470043 23.388705 24.757377 22.886719 23.923828 L 22.810547 23.748047 C 22.505301 24.07085 21.907146 24.13921 21.626953 23.611328 L 19.595703 19 L 19.154297 19 z"/>
 <path style="fill:#ffffff" d="M 10.740234 7 C 10.193265 6.9888808 9.8337274 7.5568706 10.085938 8.0332031 L 12.261719 13 L 13.859375 13 L 11.375 7.4003906 C 11.257276 7.1602415 11.01178 7.0054388 10.740234 7 z M 22.259766 7 C 21.970454 7.000432 21.708168 7.170107 21.595703 7.4316406 L 16.353516 19.042969 C 15.970017 19.906452 17.287463 20.471627 17.673828 19.609375 L 22.917969 8 C 23.135374 7.5308983 22.784985 6.9981127 22.259766 7 z M 15.974609 11.041016 C 15.685297 11.041448 15.424964 11.211122 15.3125 11.472656 L 10.068359 22.984375 C 9.6848598 23.847857 11.004261 24.413032 11.390625 23.550781 L 16.632812 12.041016 C 16.850217 11.571915 16.499827 11.039128 15.974609 11.041016 z M 18.113281 11.041016 C 17.824487 11.050916 17.568534 11.229497 17.464844 11.494141 L 14.183594 19.0625 C 13.825919 19.937927 15.163808 20.46527 15.521484 19.589844 L 18.802734 12.019531 C 19.005233 11.543659 18.638529 11.022405 18.113281 11.041016 z M 19.154297 18 L 21.626953 23.611328 C 22.082748 24.470043 23.388705 23.757377 22.886719 22.923828 L 20.738281 18 L 19.154297 18 z"/>
</svg>

<svg xmlns="http://www.w3.org/2000/svg" width="32" height="32" version="1"><rect style="opacity:.2" width="29" height="29" x="2.02" y="2" rx="14.5" ry="14.5"/><rect style="fill:#1a97d6" width="29" height="29" x="2.02" y="1" rx="14.5" ry="14.5"/><path style="fill:#fff;opacity:.2" d="M16.525 1c-8.033 0-14.5 6.467-14.5 14.5 0 .169.02.333.026.5.264-7.798 6.61-14 14.474-14S30.735 8.202 31 16c.006-.167.025-.331.025-.5 0-8.033-6.467-14.5-14.5-14.5z"/><path style="opacity:.2" d="M1.746 13a.75.75 0 0 0-.053 1.498s.967.081 2.109.34c1.141.257 2.435.746 2.95 1.26.145.146.286.264.43.4-.144.137-.285.255-.43.4-.515.515-1.809 1.004-2.95 1.262-1.142.258-2.109.34-2.109.34a.75.75 0 0 0 .127 1.495s1.06-.09 2.311-.373c1.252-.283 2.72-.704 3.68-1.663.175-.176.341-.317.512-.475.96.75 1.9 1.288 2.846 1.496a.75.75 0 0 0 .162.017h5.154a.75.75 0 0 0 .012 0h5.153a.75.75 0 0 0 .162-.017c.956-.21 1.904-.755 2.873-1.517.163.149.32.279.486.445.956.956 2.42 1.39 3.671 1.687 1.251.295 2.31.398 2.31.398a.75.75 0 1 0 .144-1.492s-.966-.094-2.109-.365c-1.142-.27-2.44-.77-2.957-1.288-.136-.137-.27-.245-.405-.373.135-.129.268-.24.405-.377.515-.514 1.808-1.003 2.95-1.26 1.141-.259 2.108-.34 2.108-.34a.75.75 0 1 0-.126-1.496s-1.06.09-2.312.373c-1.252.283-2.72.704-3.679 1.663-.168.169-.327.303-.491.455-.973-.748-1.925-1.268-2.868-1.476A.75.75 0 0 0 21.65 14h-5.153a.75.75 0 0 0-.012 0H11.33a.75.75 0 0 0-.162.017c-.946.208-1.886.745-2.846 1.496-.171-.158-.337-.299-.513-.475-.958-.959-2.427-1.38-3.679-1.663-1.251-.283-2.311-.373-2.311-.373A.75.75 0 0 0 1.746 13zm9.708 2.499h5.03a.75.75 0 0 0 .013 0h5.032c.567.131 1.233.471 1.959.984-.732.53-1.403.885-1.96 1.015h-5.031a.75.75 0 0 0-.012 0h-5.03c-.553-.128-1.215-.479-1.938-1 .723-.52 1.385-.87 1.937-.999z"/><path style="fill:#c1eaff" d="M1.746 12a.75.75 0 0 0-.053 1.498s.967.082 2.109.34c1.141.258 2.435.746 2.95 1.26.145.146.286.265.43.401-.144.136-.285.255-.43.4-.515.515-1.809 1.003-2.95 1.261-1.142.258-2.109.34-2.109.34a.75.75 0 0 0 .127 1.495s1.06-.09 2.311-.373c1.252-.282 2.72-.703 3.68-1.663.175-.176.341-.316.512-.474.96.75 1.9 1.287 2.846 1.495a.75.75 0 0 0 .162.018h5.154a.75.75 0 0 0 .012 0h5.153a.75.75 0 0 0 .162-.018c.956-.21 1.904-.754 2.873-1.517.163.15.32.279.486.445.956.957 2.42 1.391 3.671 1.687 1.251.296 2.31.398 2.31.398a.75.75 0 1 0 .144-1.491s-.966-.095-2.109-.365c-1.142-.27-2.44-.77-2.957-1.289-.136-.136-.27-.244-.405-.372.135-.13.268-.24.405-.377.515-.515 1.808-1.003 2.95-1.261 1.141-.258 2.108-.34 2.108-.34a.75.75 0 1 0-.126-1.495s-1.06.09-2.312.373c-1.252.282-2.72.704-3.679 1.663-.168.169-.327.303-.491.455-.973-.748-1.925-1.269-2.868-1.476A.75.75 0 0 0 21.65 13h-5.153a.75.75 0 0 0-.012 0H11.33a.75.75 0 0 0-.162.018c-.946.208-1.886.745-2.846 1.495-.171-.158-.337-.298-.513-.474-.958-.96-2.427-1.38-3.679-1.663-1.251-.283-2.311-.373-2.311-.373A.75.75 0 0 0 1.746 12zm9.708 2.5h5.03a.75.75 0 0 0 .013 0h5.032c.567.13 1.233.47 1.959.983-.732.53-1.403.886-1.96 1.016h-5.031a.75.75 0 0 0-.012 0h-5.03c-.553-.129-1.215-.48-1.938-1 .723-.52 1.385-.871 1.937-1z"/><path style="opacity:.2" d="m22.8 8.26-5.126 11.35c-.251.56-.89.512-1.205.177l-.115.256c-.384.863.933 1.429 1.32.566L22.918 9a.68.68 0 0 0-.117-.74zm-12.613.004c-.176.207-.245.497-.101.77L11.824 13h.438l-2.075-4.736zm6.327 4.037L11.39 23.55c-.251.56-.89.512-1.205.178l-.118.255c-.383.864.936 1.429 1.323.567l5.242-11.51a.679.679 0 0 0-.12-.74zm2.168 0-3.16 7.289c-.237.58-.896.536-1.215.191l-.123.282c-.358.875.98 1.402 1.337.527l3.282-7.57a.682.682 0 0 0-.121-.72zM19.154 19l2.473 5.611c.456.859 1.762.146 1.26-.687l-.076-.176c-.306.323-.904.391-1.184-.137L19.596 19h-.442z"/><path style="fill:#fff" d="M10.74 7c-.547-.011-.906.557-.654 1.033L12.262 13h1.597l-2.484-5.6a.722.722 0 0 0-.635-.4zm11.52 0c-.29 0-.552.17-.664.432l-5.242 11.611c-.384.863.933 1.429 1.32.566L22.918 8c.217-.47-.133-1.002-.658-1zm-6.285 4.041a.72.72 0 0 0-.662.432l-5.245 11.511c-.383.864.936 1.429 1.323.567l5.242-11.51c.217-.47-.133-1.002-.658-1zm2.138 0a.722.722 0 0 0-.648.453l-3.281 7.569c-.358.875.98 1.402 1.337.527l3.282-7.57a.708.708 0 0 0-.69-.979zM19.154 18l2.473 5.611c.456.859 1.762.146 1.26-.687L20.738 18h-1.584z"/></svg>
